teeny/outline/arrow-up.svg

<svg width="15" height="15" viewBox="0 0 15 15" fill="none" xmlns="http://www.w3.org/2000/svg">
<path d="M7.5 1.5L7.85355 1.14645L7.5 0.792893L7.14645 1.14645L7.5 1.5ZM7.14645 1.85355L11.1464 5.85355L11.8536 5.14645L7.85355 1.14645L7.14645 1.85355ZM7.14645 1.14645L3.14645 5.14645L3.85355 5.85355L7.85355 1.85355L7.14645 1.14645ZM7 1.5V14H8V1.5H7Z" fill="black"/>
</svg>

<svg viewBox="0 0 15 15" xmlns="http://www.w3.org/2000/svg"><path d="M7.5 1.5l.35-.36 -.36-.36 -.36.35 .35.35Zm-.36.35l3.99 4 .7-.71 -4.01-4 -.71.7Zm0-.71l-4 4 .7.7 4-4 -.71-.71Zm-.15.35v12.5h1V1.49h-1Z"/></svg>
